X:1
T:Zuleika
M:3/4
L:1/4
K:C
 E| A, A, C| E- D C|E/2-C/2 B,2-| B,2 B,| D D F| A G F|A/2-F/2 E2-|\
 E2 E| A G F| E2 E| G F E|D/2-A/2 A F| A A, C| E- C B,|C/2-B,/2 A,2-|\
 A,2||
